!!!OTL: Liudeng dajun
!!!ARE: Asia, China,ÿHubei Hongan
!! I, 428
!!!SCT: C2171
!!!YEM: Copyright 1995, estate of Helmut Schaffrath.
**kern
*ICvox
*Ivox
*M2/4
*k[]
*C:
{8cc
8a
4g
=1
8cc
8a
4g
=2
8dd
4dd
8ee
=3
8dd
8cc
4a}
=4
{8ee
8dd
8cc
8a
=5
8ee
8dd
8cc
8a
=6
8g
8g
16g
16a
16cc
16dd
=7
2a}
=8
{8a
8a
4dd
=9
4dd
8cc
8a
=10
8a
8a
8a
8dd
=11
4g
4d}
=12
{8cc
4cc
8g
=13
8a
8cc
8g
8e
=14
8d
4d
8e
=15
2d}
=16
{8a
4a
8dd
=17
4dd
8cc
8a
=18
4a
4dd
=19
4g
4d}
=20
{8cc
4cc
8g
=21
8a
8cc
8g
8e
=22
8d
4d
8e
=23
2d}
==
!!!AGN: Xiaodiao
!!!ONB: ESAC (Essen Associative Code) Database: SENGANSU
!!!AMT: simple duple
!!!AIN: vox
!!!EED: Helmut Schaffrath
!!!EEV: 1.0
*-
